X:6056
T:Single Reel in G
O:england
M:4/4
L:1/8
R:reel
K:G
DGGF ~G2 BG|GABG ~AGEG|DGGF GABd|egdB AGEG|\
DGGF ~G2 BG|GABG ~AGEG|DGGF GABd|egdB ~c2Bc||\
~d2 gd edgd|degd BGBc|~d2 gd edef|gedB ~c2 Bc|\
~d2 gd edgd|degd BGBd|~c2 cA ~B2 BA|GA (3Bcd gedB||\
